icons/lines/wing--wing-.svg

<svg xmlns="http://www.w3.org/2000/svg" width="24" height="24" viewBox="0 0 24 24" fill="none" stroke="currentColor" stroke-width="2" stroke-linecap="round" stroke-linejoin="round" >
  <path d="M15.9996 5H19.4996L22.1996 9.7L16.9996 19L15.0996 15.9L18.6996 9.7L15.9996 5Z" stroke-miterlimit="10"/>
  <path d="M8.99961 5H12.4996L15.1996 9.7L9.99961 19L8.09961 15.9L11.6996 9.7L8.99961 5Z" stroke-miterlimit="10"/>
  <path d="M1.7998 5H5.2998L7.9998 9.8L6.2998 12.7L1.7998 5Z" stroke-miterlimit="10"/>
  </svg>

<svg xmlns="http://www.w3.org/2000/svg" width="24" height="24" viewBox="0 0 24 24" fill="none" stroke="currentColor" stroke-width="2" stroke-linecap="round" stroke-linejoin="round">
  <path d="M1.8 5h3.5L8 9.8l-1.7 2.9z" />
  <path d="M16 5h3.5l2.7 4.7L17 19l-1.9-3.1 3.6-6.2z" />
  <path d="M9 5h3.5l2.7 4.7L10 19l-1.9-3.1 3.6-6.2z" />
</svg>
